svg/business/currency_rupee_2_fill.svg

<?xml version="1.0" encoding="UTF-8"?>
<svg width="24px" height="24px" viewBox="0 0 24 24" version="1.1" xmlns="http://www.w3.org/2000/svg" xmlns:xlink="http://www.w3.org/1999/xlink">
    <title>currency_rupee_2_fill</title>
    <g id="页面-1" stroke="none" stroke-width="1" fill="none" fill-rule="evenodd">
        <g id="Business" transform="translate(-480.000000, -336.000000)" fill-rule="nonzero">
            <g id="currency_rupee_2_fill" transform="translate(480.000000, 336.000000)">
                <path d="M24,0 L24,24 L0,24 L0,0 L24,0 Z M12.5934901,23.257841 L12.5819402,23.2595131 L12.5108777,23.2950439 L12.4918791,23.2987469 L12.4918791,23.2987469 L12.4767152,23.2950439 L12.4056548,23.2595131 C12.3958229,23.2563662 12.3870493,23.2590235 12.3821421,23.2649074 L12.3780323,23.275831 L12.360941,23.7031097 L12.3658947,23.7234994 L12.3769048,23.7357139 L12.4804777,23.8096931 L12.4953491,23.8136134 L12.4953491,23.8136134 L12.5071152,23.8096931 L12.6106902,23.7357139 L12.6232938,23.7196733 L12.6232938,23.7196733 L12.6266527,23.7031097 L12.609561,23.275831 C12.6075724,23.2657013 12.6010112,23.2592993 12.5934901,23.257841 L12.5934901,23.257841 Z M12.8583906,23.1452862 L12.8445485,23.1473072 L12.6598443,23.2396597 L12.6498822,23.2499052 L12.6498822,23.2499052 L12.6471943,23.2611114 L12.6650943,23.6906389 L12.6699349,23.7034178 L12.6699349,23.7034178 L12.678386,23.7104931 L12.8793402,23.8032389 C12.8914285,23.8068999 12.9022333,23.8029875 12.9078286,23.7952264 L12.9118235,23.7811639 L12.8776777,23.1665331 C12.8752882,23.1545897 12.8674102,23.1470016 12.8583906,23.1452862 L12.8583906,23.1452862 Z M12.1430473,23.1473072 C12.1332178,23.1423925 12.1221763,23.1452606 12.1156365,23.1525954 L12.1099173,23.1665331 L12.0757714,23.7811639 C12.0751323,23.7926639 12.0828099,23.8018602 12.0926481,23.8045676 L12.108256,23.8032389 L12.3092106,23.7104931 L12.3186497,23.7024347 L12.3186497,23.7024347 L12.3225043,23.6906389 L12.340401,23.2611114 L12.337245,23.2485176 L12.337245,23.2485176 L12.3277531,23.2396597 L12.1430473,23.1473072 Z" id="MingCute" fill-rule="nonzero"></path>
                <path d="M7.00006,6.5 C6.17163,6.5 5.50006,5.82843 5.50006,5 C5.50006,4.17157 6.17163,3.5 7.00006,3.5 L18.0001,3.5 C18.8285,3.5 19.5001,4.17157 19.5001,5 C19.5001,5.82843 18.8285,6.5 18.0001,6.5 L14.4782,6.5 C14.8659,7.10554 15.156,7.77961 15.3261,8.5 L18.0001,8.5 C18.8285,8.5 19.5001,9.17157 19.5001,10 C19.5001,10.8284 18.8285,11.5 18.0001,11.5 L15.3261,11.5 C14.8161,13.659 13.2295,15.402 11.1642,16.131 L14.8719,18.7794 C15.546,19.2609 15.7022,20.1977 15.2207,20.8719 C14.7391,21.546 13.8023,21.7021 13.1282,21.2206 L6.14667,16.2337 C5.7545,15.962 5.51799,15.5352 5.50101,15.0538 C5.48751,14.6853 5.61922,14.311 5.85214,14.0344 C6.14385,13.6868 6.56313,13.4943 7.02012,13.5 L9.00006,13.5 C10.3963,13.5 11.6015,12.6825 12.1632,11.5 L7.00006,11.5 C6.17163,11.5 5.50006,10.8284 5.50006,10 C5.50006,9.17157 6.17163,8.5 7.00006,8.5 L12.1632,8.5 C11.6015,7.31753 10.3963,6.5 9.00006,6.5 L7.00006,6.5 Z" id="路径" fill="#09244B"></path>
            </g>
        </g>
    </g>
</svg>

<svg xmlns="http://www.w3.org/2000/svg" width="24" height="24"><g fill="none" fill-rule="nonzero"><path d="M24 0v24H0V0zM12.593 23.258l-.011.002-.071.035-.02.004-.014-.004-.071-.035c-.01-.004-.019-.001-.024.005l-.004.01-.017.428.005.02.01.013.104.074.015.004.012-.004.104-.074.012-.016.004-.017-.017-.427c-.002-.01-.009-.017-.017-.018m.265-.113-.013.002-.185.093-.01.01-.003.011.018.43.005.012.008.007.201.093c.012.004.023 0 .029-.008l.004-.014-.034-.614c-.003-.012-.01-.02-.02-.022m-.715.002a.023.023 0 0 0-.027.006l-.006.014-.034.614c0 .012.007.02.017.024l.015-.002.201-.093.01-.008.004-.011.017-.43-.003-.012-.01-.01z"/><path fill="#09244B" d="M7 6.5a1.5 1.5 0 1 1 0-3h11a1.5 1.5 0 0 1 0 3h-3.522c.388.606.678 1.28.848 2H18a1.5 1.5 0 0 1 0 3h-2.674a6.513 6.513 0 0 1-4.162 4.631l3.708 2.648a1.5 1.5 0 0 1-1.744 2.442l-6.981-4.987a1.484 1.484 0 0 1-.646-1.18 1.523 1.523 0 0 1 .351-1.02c.292-.347.711-.54 1.168-.534H9a3.5 3.5 0 0 0 3.163-2H7a1.5 1.5 0 0 1 0-3h5.163A3.5 3.5 0 0 0 9 6.5z"/></g></svg>
